svgs/sharp-light/hand-holding.svg

<svg xmlns="http://www.w3.org/2000/svg" viewBox="0 0 576 512"><!--! Font Awesome Pro 6.6.0 by @fontawesome - https://fontawesome.com License - https://fontawesome.com/license (Commercial License) Copyright 2024 Fonticons, Inc. --><path d="M176 304l-4.8 0-4 2.7L75.2 368 16 368 0 368l0 32 16 0 64 0 4.8 0 4-2.7 92-61.3L368 336l0 48-48 0-16 0-48 0-16 0 0 32 16 0 48 0 16 0 64 0 16 0 4.6 0 4.4 0 3.8-2.3 94-56L530 395 395.4 480 16 480 0 480l0 32 16 0 384 0 4.6 0 3.9-2.5 152-96L574 405l-8.4-13.5-40-64-8.3-13.3-13.5 8L400.2 384l-.2 0 0-64 0-16-16 0-208 0z"/></svg>

<svg xmlns="http://www.w3.org/2000/svg" viewBox="0 0 576 512"><!--! Font Awesome Pro 6.4.0 by @fontawesome - https://fontawesome.com License - https://fontawesome.com/license (Commercial License) Copyright 2023 Fonticons, Inc. --><path d="M176 304h-4.8l-4 2.7L75.2 368H16 0v32H16 80h4.8l4-2.7 92-61.3H368v48H320 304 256 240v32h16 48 16 64 16 4.6H409l3.8-2.3 94-56L530 395 395.4 480H16 0v32H16 400h4.6l3.9-2.5 152-96L574 405l-8.4-13.5-40-64-8.3-13.3-13.5 8L400.2 384H400V320 304H384 176z"/></svg>
